X:1
T:Billy Boy
M:6/8
L:1/4
K:G
 d c/2| B A/2 B G/2| E3/2E/2-F/2 G/2| A3/2 A G/2| A3/2 d c/2| B A/2|\
 B G/2 E3/2|D/2-E/2 G/2 G3/2-| G z/2 d c/2| B c/2 d g/2| g- d/2 d d/2|\
 e e/2 e d/2| d3/2 G A/2| B B/2 B c/2| d c/2 B A/2| A G/2 G G/2| G3/2- G||\
